kora/apps/scalable/eu.scarpetta.QtWAW.svg

<svg xmlns="http://www.w3.org/2000/svg" width="48" height="48" version="1.1">
 <path style="opacity:0.2" d="m 19.719527,5.187838 c 4.292309,-0.3567414 8.797353,-0.2609004 12.860237,0.7747149 3.291192,0.8306218 6.085988,2.4572566 7.56264,4.5178381 2.26504,3.122819 3.132676,6.570432 3.570669,9.975449 0.475529,4.531149 0.408791,9.104896 -0.571473,13.609422 -0.688272,2.680883 -1.668537,5.505533 -4.513391,7.61936 -2.886567,2.121812 -7.337386,3.0323 -11.608838,3.24528 -4.505048,0.210318 -9.256201,0 -13.323257,-1.360407 C 11.322618,42.762833 9.3078629,41.498262 8.1315453,39.948834 6.7049486,38.093245 5.9207335,36.067274 5.3701173,34.038642 3.7099258,27.606642 3.309476,20.95102 5.5786873,14.556295 6.5130669,12.144297 7.8729213,9.6684046 10.634349,7.850088 13.03704,6.2926718 16.382455,5.4886724 19.719527,5.187838 Z"/>
 <path style="fill:#41cd52" d="m 19.719527,4.1878376 c 4.292309,-0.3567414 8.797353,-0.2609004 12.860237,0.7747149 3.291192,0.8306218 6.085988,2.4572566 7.56264,4.5178378 2.26504,3.1228197 3.132676,6.5704327 3.570669,9.9754497 0.475529,4.531149 0.408791,9.104896 -0.571473,13.609422 -0.688272,2.680883 -1.668537,5.505533 -4.513391,7.61936 -2.886567,2.121812 -7.337386,3.0323 -11.608838,3.24528 -4.505048,0.210318 -9.256201,0 -13.323257,-1.360407 C 11.322618,41.762833 9.3078629,40.498262 8.1315453,38.948834 6.7049486,37.093245 5.9207335,35.067274 5.3701173,33.038642 3.7099258,26.606642 3.309476,19.95102 5.5786873,13.556295 6.5130669,11.144297 7.8729213,8.6684042 10.634349,6.8500876 13.03704,5.2926714 16.382455,4.488672 19.719527,4.1878376 Z"/>
 <path style="opacity:0.2" d="m 24.345703,6.994141 c -2.831679,0 -5.808613,0.3774509 -8.216797,1.9707032 -2.051648,1.3306288 -3.266245,3.5955278 -4,5.8652338 -0.94863,3.017789 -1.149237,6.063864 -1.126953,9.208984 0.04298,2.909554 0.294573,6.160921 1.230469,8.933594 0.571407,1.639409 1.405699,3.251935 2.736328,4.404297 1.731726,1.510484 4.019432,2.193899 6.263672,2.462891 1.873384,0.206915 3.780697,0.231382 5.644531,-0.07422 L 32,42.455078 v -4.339844 c 1.78266,-1.279695 3.088948,-3.123693 3.798828,-5.199218 C 36.858871,29.864805 37.004775,26.292265 37,23.089844 36.9618,19.909707 36.628271,16.828257 35.490234,13.835938 34.786721,12.013485 33.730915,10.250596 32.107422,9.1093754 29.872732,7.500207 27.042182,6.994141 24.345703,6.994141 Z M 23.75,10.976563 c 0.163518,-0.0037 0.328697,-0.003 0.492188,0 1.089939,0.02005 2.173736,0.195901 3.189453,0.601562 1.316472,0.520581 2.434731,1.538634 3.02539,2.830078 0.906013,1.957187 1.25254,4.1179 1.427735,6.251953 0.190214,2.83984 0.163589,5.665124 -0.228516,8.488282 -0.275305,1.68021 -0.537844,3.450575 -1.675781,4.77539 l 0.03906,5.101563 -4.8125,-3.06836 c -1.802014,0.131815 -3.701306,0.0011 -5.328125,-0.851562 -0.949393,-0.505566 -1.756036,-1.298446 -2.226562,-2.269531 -0.570637,-1.162968 -0.88327,-2.431704 -1.103516,-3.703126 -0.664075,-4.031172 -0.825645,-8.162107 0.08203,-12.169921 0.373752,-1.511689 0.918871,-3.063518 2.023438,-4.203125 0.961075,-0.976091 2.297986,-1.479425 3.632812,-1.667969 0.482884,-0.06288 0.972338,-0.104021 1.462891,-0.115234 z"/>
 <path style="fill:#ffffff" d="M 24.345703 5.9941406 C 21.514024 5.9941406 18.53709 6.3715915 16.128906 7.9648438 C 14.077258 9.2954722 12.862661 11.560372 12.128906 13.830078 C 11.180276 16.847867 10.979669 19.893942 11.001953 23.039062 C 11.044933 25.948616 11.296526 29.199983 12.232422 31.972656 C 12.803829 33.612065 13.638121 35.224591 14.96875 36.376953 C 16.700476 37.887437 18.988182 38.570852 21.232422 38.839844 C 23.105806 39.046759 25.013119 39.071226 26.876953 38.765625 L 32 41.455078 L 32 37.115234 C 33.78266 35.835539 35.088948 33.991541 35.798828 31.916016 C 36.858871 28.864805 37.004775 25.292265 37 22.089844 C 36.9618 18.909707 36.628271 15.828257 35.490234 12.835938 C 34.786721 11.013485 33.730915 9.2505958 32.107422 8.109375 C 29.872732 6.5002066 27.042182 5.9941406 24.345703 5.9941406 z M 23.75 9.9765625 C 23.913518 9.9728247 24.078697 9.9735539 24.242188 9.9765625 C 25.332127 9.9966165 26.415924 10.172464 27.431641 10.578125 C 28.748113 11.098706 29.866372 12.116759 30.457031 13.408203 C 31.363044 15.36539 31.709571 17.526103 31.884766 19.660156 C 32.07498 22.499996 32.048355 25.32528 31.65625 28.148438 C 31.380945 29.828648 31.118406 31.599013 29.980469 32.923828 L 30.019531 38.025391 L 25.207031 34.957031 C 23.405017 35.088846 21.505725 34.958088 19.878906 34.105469 C 18.929513 33.599903 18.12287 32.807023 17.652344 31.835938 C 17.081707 30.67297 16.769074 29.404234 16.548828 28.132812 C 15.884753 24.10164 15.723183 19.970705 16.630859 15.962891 C 17.004611 14.451202 17.54973 12.899373 18.654297 11.759766 C 19.615372 10.783675 20.952283 10.280341 22.287109 10.091797 C 22.769993 10.028917 23.259447 9.987776 23.75 9.9765625 z"/>
 <path style="fill:#ffffff;opacity:0.2" d="M 24.603516 4.0039062 C 22.968604 3.9847037 21.328366 4.053722 19.71875 4.1875 C 16.381678 4.4883344 13.037457 5.2921932 10.634766 6.8496094 C 7.8733379 8.667926 6.5125046 11.144643 5.578125 13.556641 C 4.4064847 16.858368 3.9501271 20.229376 4.0078125 23.603516 C 4.0497052 20.563814 4.5222347 17.53218 5.578125 14.556641 C 6.5125046 12.144643 7.8733379 9.667926 10.634766 7.8496094 C 13.037457 6.2921932 16.381678 5.4883344 19.71875 5.1875 C 24.011059 4.8307586 28.517194 4.9272753 32.580078 5.9628906 C 35.87127 6.7935124 38.665926 8.4198873 40.142578 10.480469 C 42.407618 13.603288 43.274898 17.050061 43.712891 20.455078 C 43.876438 22.013468 43.970076 23.57866 43.990234 25.142578 C 44.007597 23.245292 43.9113 21.345655 43.712891 19.455078 C 43.274898 16.050061 42.407618 12.603288 40.142578 9.4804688 C 38.665926 7.4198876 35.87127 5.7935124 32.580078 4.9628906 C 30.040776 4.3156311 27.328369 4.0359105 24.603516 4.0039062 z"/>
</svg>

<svg clip-rule="evenodd" fill-rule="evenodd" stroke-linejoin="round" stroke-miterlimit="2" viewBox="0 0 48 48" xmlns="http://www.w3.org/2000/svg">
 <linearGradient id="a" x2="1" gradientTransform="matrix(0 -33.6872 33.6872 0 923.28 40.4502)" gradientUnits="userSpaceOnUse">
  <stop stop-color="#168b24" offset="0"/>
  <stop stop-color="#41cd52" offset="1"/>
 </linearGradient>
 <path d="m39.44 45.668h-30.88c-3.438 0-6.228-2.79-6.228-6.228v-30.88c0-3.438 2.79-6.228 6.228-6.228h30.88c3.438 0 6.228 2.79 6.228 6.228v30.88c0 3.438-2.79 6.228-6.228 6.228z" fill="url(#a)"/>
 <path d="m24.346 5.994c-2.832 0-5.809.378-8.217 1.971-2.052 1.33-3.266 3.595-4 5.865-.949 3.018-1.149 6.064-1.127 9.209.043 2.91.295 6.161 1.23 8.934.572 1.639 1.406 3.252 2.737 4.404 1.731 1.51 4.019 2.194 6.263 2.463 1.874.207 3.781.231 5.645-.074l5.123 2.689v-4.34c1.783-1.279 3.089-3.123 3.799-5.199 1.06-3.051 1.206-6.624 1.201-9.826-.038-3.18-.372-6.262-1.51-9.254-.703-1.823-1.759-3.585-3.383-4.727-2.234-1.609-5.065-2.115-7.761-2.115zm-.596 3.983c.164-.004.329-.003.492 0 1.09.02 2.174.195 3.19.601 1.316.521 2.434 1.539 3.025 2.83.906 1.957 1.253 4.118 1.428 6.252.19 2.84.163 5.665-.229 8.488-.275 1.681-.538 3.451-1.676 4.776l.04 5.101-4.813-3.068c-1.802.132-3.701.001-5.328-.852-.949-.505-1.756-1.298-2.227-2.269-.57-1.163-.883-2.432-1.103-3.703-.664-4.031-.826-8.162.082-12.17.374-1.512.919-3.064 2.023-4.203.961-.976 2.298-1.48 3.633-1.668.483-.063.972-.104 1.463-.115z" fill="#fff" fill-rule="nonzero"/>
</svg>
